src/svg/pin-outline.svg

<svg version="1.2" baseProfile="tiny" xmlns="http://www.w3.org/2000/svg" width="24" height="24" viewBox="0 0 24 24"><path d="M21.436 7.586l-3.998-4.02c-.752-.756-2.063-.764-2.83-.006-.196.196-.35.436-.418.629-.653 1.362-1.354 2.215-2.254 2.727l-.217.105c-.968.485-2.285.979-4.719.979-.266 0-.521.052-.766.152-.484.202-.879.595-1.082 1.084-.199.484-.199 1.041 0 1.525.104.249.25.471.435.651l3.235 3.235-3.822 5.353 5.352-3.822 3.227 3.227c.186.189.406.339.656.441.247.103.503.154.766.154s.519-.052.765-.154c.498-.205.883-.592 1.08-1.078.103-.242.155-.507.155-.768 0-2.436.494-3.752.978-4.721.496-.992 1.369-1.748 2.754-2.414.271-.104.51-.256.711-.457.772-.782.768-2.051-.008-2.822zm-5.248 4.801c-.819 1.643-1.188 3.37-1.195 5.604l-7.993-7.991c2.139 0 3.814-.335 5.396-1.084l.235-.105c1.399-.699 2.468-1.893 3.388-3.834l3.924 4.051c-1.863.893-3.056 1.96-3.755 3.359z"/></svg>

<?xml version="1.0" encoding="iso-8859-1"?>
<!-- Generator: Adobe Illustrator 16.2.1, SVG Export Plug-In . SVG Version: 6.00 Build 0)  -->
<svg version="1.2" baseProfile="tiny" id="Layer_1" xmlns="http://www.w3.org/2000/svg" xmlns:xlink="http://www.w3.org/1999/xlink"
	 x="0px" y="0px" width="24px" height="24px" viewBox="0 0 24 24" xml:space="preserve">
<path d="M21.436,7.586l-3.998-4.02c-0.752-0.756-2.063-0.764-2.83-0.006c-0.196,0.196-0.35,0.436-0.418,0.629
	c-0.653,1.362-1.354,2.215-2.254,2.727l-0.217,0.105C10.751,7.506,9.434,8,7,8C6.734,8,6.479,8.052,6.234,8.152
	C5.75,8.354,5.355,8.747,5.152,9.236c-0.199,0.484-0.199,1.041,0,1.525c0.104,0.249,0.25,0.471,0.435,0.651l3.235,3.235L5,20
	l5.352-3.822l3.227,3.227c0.186,0.189,0.406,0.339,0.656,0.441C14.482,19.949,14.738,20,15.001,20s0.519-0.052,0.765-0.154
	c0.498-0.205,0.883-0.592,1.08-1.078c0.103-0.242,0.155-0.507,0.155-0.768c0-2.436,0.494-3.752,0.978-4.721
	c0.496-0.992,1.369-1.748,2.754-2.414c0.271-0.104,0.51-0.256,0.711-0.457C22.216,9.626,22.212,8.357,21.436,7.586z M16.188,12.387
	c-0.819,1.643-1.188,3.37-1.195,5.604L7,10c2.139,0,3.814-0.335,5.396-1.084l0.235-0.105c1.399-0.699,2.468-1.893,3.388-3.834
	l3.924,4.051C18.08,9.921,16.887,10.988,16.188,12.387z"/>
</svg>
